dist/images/icons/ball.svg

<svg width="24" height="24" viewBox="0 0 24 24" fill="none" xmlns="http://www.w3.org/2000/svg">
<g clip-path="url(#clip0_708_12377)">
<path d="M12 0C5.37258 0 0 5.37258 0 12C0 18.6274 5.37258 24 12 24C18.6274 24 24 18.6274 24 12C24 5.37258 18.6274 0 12 0ZM20.226 5.20575C19.3589 4.42542 18.6254 3.93103 18.4511 3.8168C18.2906 3.58955 17.9501 3.25158 17.545 2.88436C18.5622 3.50381 19.4684 4.28906 20.226 5.20575ZM15.95 5.62538C16.9657 6.88983 17.0698 8.505 17.1387 9.57558L17.1404 9.60108C16.5201 10.2297 14.2851 12.2069 13.8705 12.573C12.5509 11.7975 9.99567 11.2609 9.53058 11.1675C9.20419 10.1161 8.69067 8.30864 8.57498 7.00837L8.57109 6.96492C8.86256 6.55383 9.97603 5.11711 11.8314 4.2832C12.3059 4.29286 14.6824 4.64695 15.95 5.62538ZM4.28438 5.23336C4.36706 5.08031 4.695 4.60528 5.98627 3.18783C6.80611 2.62716 7.69795 2.18494 8.63789 1.87303C8.74509 1.87177 8.85577 1.87111 8.96747 1.87111C9.91289 1.87111 10.783 1.91747 11.1291 1.93852L11.547 3.95245C10.4109 4.48547 9.55959 5.22408 9.03764 5.76075C8.64389 6.1657 8.37783 6.51328 8.24006 6.70655C8.02964 6.61978 7.74675 6.57736 7.38323 6.57736C6.36642 6.57736 4.99378 6.91181 4.50783 7.03922C4.21673 6.29536 4.26914 5.41866 4.28438 5.23336ZM1.35858 12.7604C1.34072 12.5071 1.33172 12.2516 1.33172 12C1.33172 9.86011 1.96359 7.79644 3.15928 6.02991C3.47873 5.78813 3.7005 5.6347 3.85092 5.53791C3.84591 5.96147 3.88706 6.66244 4.15566 7.2848C3.41958 8.77744 2.99958 9.97167 2.907 10.8357C2.86711 11.2072 2.89627 11.4504 2.93916 11.6046C2.35566 11.9722 1.79653 12.6048 1.51969 12.943C1.47112 12.8823 1.41731 12.8213 1.35858 12.7604ZM5.37469 19.8507L4.50647 19.5897C3.53545 18.631 2.76802 17.5171 2.22492 16.278C1.61058 14.2638 1.67873 13.529 1.70259 13.3867C1.8383 13.2107 2.48456 12.396 3.13711 11.9753C3.46613 12.4651 4.47698 13.8373 5.76525 14.3159C5.739 15.3986 6.07219 16.4738 6.36319 17.1975C6.59461 17.7728 6.83095 18.2133 6.95433 18.4294C6.55012 18.8114 5.60541 19.647 5.37469 19.8507ZM7.38647 18.3376C7.26558 18.1367 6.12173 16.1815 6.18544 14.2855C6.37467 14.1087 6.97045 13.5556 7.61067 12.9947C8.85211 11.9071 9.28781 11.6394 9.43664 11.5763C9.86297 11.6625 12.6616 12.2501 13.8317 13.0436C14.1218 13.812 14.7154 16.6277 14.8069 17.0652C14.3835 17.5578 13.0804 18.9955 11.6979 19.7361C10.0266 19.6255 8.94305 19.251 8.32645 18.9546C7.72594 18.6658 7.44192 18.3941 7.38647 18.3376ZM12 22.6683C11.8573 22.6683 11.7142 22.6655 11.5712 22.6597C12.0093 22.5466 12.2918 22.421 12.4404 22.3438C12.5494 22.3838 12.6605 22.4269 12.7767 22.472C12.8909 22.5163 13.0098 22.5625 13.1341 22.6083C12.7576 22.6482 12.3785 22.6683 12 22.6683ZM19.3009 18.9363L19.2775 19.0715C19.2092 19.467 19.0069 19.8872 18.6761 20.3207C17.3418 21.3926 15.7552 22.1332 14.0835 22.4645C13.6513 22.3619 13.284 22.2193 12.9283 22.0812C12.8012 22.0319 12.6802 21.9848 12.5594 21.941C12.0711 21.1723 12.0048 20.3248 11.9966 20.0503C13.43 19.2473 14.7479 17.7793 15.149 17.31C15.676 17.3855 16.1733 17.4238 16.6287 17.4238C17.9266 17.4238 18.6244 17.1137 18.9313 16.9225C19.1271 17.3206 19.3607 17.9885 19.3702 18.9193L19.3009 18.9363ZM22.2349 11.0438C22.3564 11.2824 22.5197 11.6861 22.6633 12.3214C22.6289 13.4848 22.4078 14.6238 22.0061 15.7073C21.6205 16.7474 21.0759 17.718 20.387 18.5931C20.1676 18.6811 19.9569 18.7518 19.7873 18.804C19.7585 17.7984 19.4856 17.0802 19.2713 16.6661C20.5102 15.594 20.6818 12.8538 20.7042 12.2843C21.3307 11.9604 21.8994 11.4085 22.2349 11.0438ZM21.5067 7.15402C21.5817 7.30102 21.6544 7.45228 21.7233 7.60448C21.813 8.35453 22.0115 10.0755 22.0115 10.6261L22.0099 10.6679C21.7179 10.9959 21.1596 11.5664 20.5488 11.8926C19.725 10.8045 18.1688 9.8857 17.5572 9.55087C17.4916 8.53317 17.3839 6.86255 16.3966 5.51888L18.2558 4.19048C18.6012 4.42205 20.2126 5.54423 21.5067 7.15402Z" fill="#BFDDFF"/>
</g>
<defs>
<clipPath id="clip0_708_12377">
<rect width="24" height="24" fill="white"/>
</clipPath>
</defs>
</svg>

<svg xmlns="http://www.w3.org/2000/svg" width="24" height="24" fill="none"><g clip-path="url(#a)"><path fill="#BFDDFF" d="M12 0C5.373 0 0 5.373 0 12s5.373 12 12 12 12-5.373 12-12S18.627 0 12 0m8.226 5.206c-.867-.78-1.6-1.275-1.775-1.39-.16-.226-.5-.564-.906-.932a10.7 10.7 0 0 1 2.681 2.322m-4.276.42c1.016 1.264 1.12 2.879 1.189 3.95l.001.025c-.62.629-2.855 2.606-3.27 2.972-1.32-.776-3.874-1.312-4.34-1.405-.326-1.052-.84-2.86-.955-4.16l-.004-.043c.292-.411 1.405-1.848 3.26-2.682.475.01 2.851.364 4.119 1.342M4.284 5.232c.083-.153.411-.628 1.702-2.045.82-.56 1.712-1.003 2.652-1.315l.33-.002c.945 0 1.815.046 2.161.068l.418 2.013a8.8 8.8 0 0 0-2.51 1.809c-.393.405-.66.752-.797.946-.21-.087-.493-.13-.857-.13-1.017 0-2.39.335-2.875.462-.291-.744-.239-1.62-.224-1.806M1.36 12.76a10.608 10.608 0 0 1 1.8-6.73c.32-.242.542-.395.692-.492-.005.423.036 1.124.305 1.747C3.42 8.777 3 9.972 2.907 10.835c-.04.372-.01.615.032.77-.583.367-1.142 1-1.42 1.338a3 3 0 0 0-.16-.183m4.016 7.09-.869-.26a10.6 10.6 0 0 1-2.281-3.312c-.614-2.014-.546-2.749-.522-2.891.135-.176.782-.991 1.434-1.412.33.49 1.34 1.862 2.628 2.34-.026 1.084.307 2.159.598 2.883.232.575.468 1.015.591 1.231a91 91 0 0 1-1.58 1.422m2.011-1.512c-.12-.201-1.264-2.157-1.2-4.052.189-.177.784-.73 1.425-1.291 1.241-1.088 1.677-1.356 1.826-1.419.426.086 3.225.674 4.395 1.468.29.768.883 3.584.975 4.021-.424.493-1.727 1.93-3.11 2.671-1.67-.11-2.754-.485-3.37-.781-.601-.29-.885-.56-.94-.617M12 22.668q-.214 0-.429-.008c.438-.113.72-.239.87-.316q.162.06.336.128.171.066.357.136-.565.06-1.134.06m7.3-3.732-.023.136c-.068.395-.27.815-.6 1.249a10.7 10.7 0 0 1-4.593 2.143 8.5 8.5 0 0 1-1.156-.383q-.189-.074-.369-.14c-.488-.769-.554-1.616-.562-1.89 1.433-.804 2.75-2.272 3.152-2.741.527.076 1.024.114 1.48.114 1.298 0 1.995-.31 2.302-.502.196.399.43 1.066.44 1.997zm2.935-7.892c.121.238.285.642.428 1.277a10.62 10.62 0 0 1-2.276 6.272c-.22.088-.43.159-.6.211-.028-1.006-.301-1.724-.516-2.138 1.24-1.072 1.41-3.812 1.433-4.382.627-.324 1.195-.876 1.53-1.24m-.728-3.89q.112.221.216.45c.09.75.289 2.472.289 3.022l-.002.042c-.292.328-.85.898-1.461 1.225-.824-1.088-2.38-2.007-2.992-2.342-.065-1.018-.173-2.688-1.16-4.032l1.859-1.329c.345.232 1.957 1.354 3.25 2.964"/></g><defs><clipPath id="a"><path fill="#fff" d="M0 0h24v24H0z"/></clipPath></defs></svg>
